src/assets/flags/KZT.svg

<svg width="512" height="512" viewBox="0 0 512 512" fill="none" xmlns="http://www.w3.org/2000/svg">
<mask id="mask0_512_30" style="mask-type:alpha" maskUnits="userSpaceOnUse" x="0" y="0" width="512" height="512">
<path d="M256 512C397.385 512 512 397.385 512 256C512 114.615 397.385 0 256 0C114.615 0 0 114.615 0 256C0 397.385 114.615 512 256 512Z" fill="white"/>
</mask>
<g mask="url(#mask0_512_30)">
<path d="M0 0H512V512H0V0Z" fill="#338AF3"/>
<path d="M396.4 268.1H107C107 288.1 124.4 304.3 144.4 304.3H143.2C143.2 324.3 159.4 340.4 179.4 340.4C179.4 360.4 195.5 376.6 215.5 376.6H287.9C307.9 376.6 324 360.4 324 340.4C344 340.4 360.2 324.2 360.2 304.3H359C379 304.3 396.4 288.1 396.4 268.1Z" fill="#FFDA44"/>
<path d="M351.9 220.8C351.9 247.375 341.343 272.861 322.552 291.652C303.761 310.443 278.275 321 251.7 321C225.125 321 199.639 310.443 180.848 291.652C162.057 272.861 151.5 247.375 151.5 220.8" fill="#338AF3"/>
<path d="M328.2 220.8L296.9 235.5L313.6 265.8L279.6 259.3L275.3 293.6L251.7 268.3L228.1 293.6L223.7 259.3L189.7 265.8L206.3 235.5L175.1 220.8L206.3 206.1L189.7 175.8L223.7 182.3L228 148L251.6 173.2L275.2 148L279.7 182.3L313.7 175.8L297.1 206.1L328.2 220.8Z" fill="#FFDA44"/>
</g>
</svg>

<svg width="512" height="512" viewBox="0 0 512 512" fill="none" xmlns="http://www.w3.org/2000/svg"><mask id="a" style="mask-type:alpha" maskUnits="userSpaceOnUse" x="0" y="0" width="512" height="512" viewBox="0 0 512 512"><path d="M256 512c141.385 0 256-114.615 256-256S397.385 0 256 0 0 114.615 0 256s114.615 256 256 256z" fill="#fff"/></mask><g mask="url(#a)"><path d="M0 0h512v512H0V0z" fill="#338AF3"/><path d="M396.4 268.1H107c0 20 17.4 36.2 37.4 36.2h-1.2c0 20 16.2 36.1 36.2 36.1 0 20 16.1 36.2 36.1 36.2h72.4c20 0 36.1-16.2 36.1-36.2 20 0 36.2-16.2 36.2-36.1H359c20 0 37.4-16.2 37.4-36.2z" fill="#FFDA44"/><path d="M351.9 220.8a100.2 100.2 0 0 1-200.4 0" fill="#338AF3"/><path d="m328.2 220.8-31.3 14.7 16.7 30.3-34-6.5-4.3 34.3-23.6-25.3-23.6 25.3-4.4-34.3-34 6.5 16.6-30.3-31.2-14.7 31.2-14.7-16.6-30.3 34 6.5L228 148l23.6 25.2 23.6-25.2 4.5 34.3 34-6.5-16.6 30.3 31.1 14.7z" fill="#FFDA44"/></g></svg>
